build/assets/images/search.svg

<svg width="20" height="20" viewBox="0 0 20 20" fill="none" xmlns="http://www.w3.org/2000/svg">
<path d="M15.7832 14.3911L20 18.6069L18.6069 20L14.3911 15.7832C12.8224 17.0407 10.8713 17.7246 8.86088 17.7218C3.96968 17.7218 0 13.7521 0 8.86088C0 3.96968 3.96968 0 8.86088 0C13.7521 0 17.7218 3.96968 17.7218 8.86088C17.7246 10.8713 17.0407 12.8224 15.7832 14.3911ZM13.8082 13.6605C15.0577 12.3756 15.7555 10.6532 15.7527 8.86088C15.7527 5.05267 12.6681 1.96909 8.86088 1.96909C5.05267 1.96909 1.96909 5.05267 1.96909 8.86088C1.96909 12.6681 5.05267 15.7527 8.86088 15.7527C10.6532 15.7555 12.3756 15.0577 13.6605 13.8082L13.8082 13.6605Z" fill="#00458B"/>
</svg>

<svg width="20" height="20" fill="none" xmlns="http://www.w3.org/2000/svg"><path d="M15.783 14.391L20 18.607 18.607 20l-4.216-4.217a8.822 8.822 0 01-5.53 1.939C3.97 17.722 0 13.752 0 8.86S3.97 0 8.86 0c4.892 0 8.862 3.97 8.862 8.86a8.822 8.822 0 01-1.939 5.531zm-1.975-.73a6.87 6.87 0 001.945-4.8A6.89 6.89 0 008.86 1.969a6.89 6.89 0 00-6.892 6.892 6.89 6.89 0 006.892 6.892 6.87 6.87 0 004.8-1.945l.147-.147z" fill="#00458B"/></svg>
